Sources/FrostedUI/Resources/Icons.xcassets/messageEdit16.imageset/message-edit-16.svg

<svg width="16" height="16" viewBox="0 0 16 16" fill="none" xmlns="http://www.w3.org/2000/svg" data-fui-icon="true">
  <path
    d="M7.57227 1.75028C7.98648 1.75028 8.32227 2.08607 8.32227 2.50028C8.32211 2.91437 7.98638 3.25028 7.57227 3.25028H3.16602C2.84422 3.25059 2.58318 3.51146 2.58301 3.83329V10.8333C2.58316 11.1551 2.8442 11.417 3.16602 11.4173H5.76758C6.05878 11.4173 6.34201 11.5065 6.5791 11.6722L6.67773 11.7483L8.00098 12.8567L9.34668 11.7425L9.44434 11.6683C9.68027 11.5051 9.96145 11.4174 10.25 11.4173H12.833C13.1551 11.4173 13.4159 11.1553 13.416 10.8333V8.00028C13.416 7.58626 13.7521 7.25059 14.166 7.25028C14.5802 7.25028 14.916 7.58607 14.916 8.00028V10.8333C14.9159 11.9838 13.9835 12.9173 12.833 12.9173H10.2803L8.9043 14.0569C8.37776 14.4927 7.61482 14.4903 7.09082 14.0511L5.7373 12.9173H3.16602C2.01579 12.917 1.08316 11.9836 1.08301 10.8333V3.83329C1.08318 2.68304 2.01579 1.75059 3.16602 1.75028H7.57227ZM5 6.50028C5.46016 6.50037 5.83299 6.87317 5.83301 7.33329C5.83301 7.79343 5.46017 8.16621 5 8.1663C4.53975 8.1663 4.16699 7.79349 4.16699 7.33329C4.16701 6.87311 4.53977 6.50028 5 6.50028ZM8 6.50028C8.46012 6.50037 8.83299 6.87316 8.83301 7.33329C8.83301 7.79344 8.46013 8.16621 8 8.1663C7.5398 8.1663 7.16699 7.79349 7.16699 7.33329C7.16701 6.8731 7.53981 6.50028 8 6.50028ZM12.3262 0.813759C13.085 0.0549499 14.3154 0.0549079 15.0742 0.813759C15.8328 1.57263 15.8329 2.80302 15.0742 3.56181L12.8281 5.8079C12.3867 6.24912 11.8078 6.52796 11.1875 6.59696L10.9795 6.61845C9.99245 6.72787 9.15888 5.89361 9.26855 4.90653L9.29102 4.70048C9.35998 4.07987 9.63854 3.50041 10.0801 3.05888L12.3262 0.813759ZM14.0137 1.87431C13.8406 1.70124 13.5598 1.70128 13.3867 1.87431L11.1406 4.11942C10.94 4.32002 10.8137 4.58358 10.7822 4.86552L10.7588 5.07352C10.7555 5.10519 10.7828 5.1317 10.8145 5.12821L11.0215 5.10477C11.3035 5.0734 11.5669 4.94704 11.7676 4.74638L14.0137 2.50126C14.1866 2.32826 14.1865 2.04739 14.0137 1.87431Z"
    fill="currentColor"
  />
</svg>

<svg xmlns="http://www.w3.org/2000/svg" width="16" height="16" fill="none" data-fui-icon="true" viewBox="0 0 16 16"><path fill="currentColor" d="M7.572 1.75a.75.75 0 0 1 0 1.5H3.166a.584.584 0 0 0-.583.583v7c0 .322.261.584.583.584h2.602c.29 0 .574.09.811.255l.099.076L8 12.857l1.346-1.114.097-.075c.236-.163.517-.25.806-.25h2.583a.584.584 0 0 0 .583-.585V8a.75.75 0 0 1 1.5 0v2.833c0 1.15-.933 2.084-2.083 2.084H10.28l-1.376 1.14a1.42 1.42 0 0 1-1.813-.006l-1.354-1.134H3.166a2.084 2.084 0 0 1-2.083-2.084v-7c0-1.15.933-2.082 2.083-2.083zM5 6.5a.833.833 0 1 1 0 1.666A.833.833 0 0 1 5 6.5m3 0a.833.833 0 1 1 0 1.666A.833.833 0 0 1 8 6.5M12.326.814a1.943 1.943 0 1 1 2.748 2.748l-2.246 2.246c-.441.441-1.02.72-1.64.789l-.209.021a1.55 1.55 0 0 1-1.71-1.711L9.29 4.7c.069-.62.348-1.2.79-1.641zm1.688 1.06a.444.444 0 0 0-.627 0L11.14 4.12c-.201.201-.327.465-.359.747l-.023.208a.05.05 0 0 0 .056.054l.207-.023c.281-.032.545-.158.746-.359l2.246-2.245a.444.444 0 0 0 0-.627"/></svg>
